packages/core/src/svgs/tokens/mono/OCEAN.svg

<svg width="24" height="24" viewBox="0 0 24 24" fill="none" xmlns="http://www.w3.org/2000/svg">
<path d="M4.56249 11.625C4.56249 12.2126 4.07498 12.6875 3.48124 12.6875C2.88749 12.6875 2.40625 12.2126 2.40625 11.625C2.40625 11.0376 2.88749 10.5625 3.48124 10.5625C4.07498 10.5625 4.55623 11.0376 4.55623 11.625H4.56249ZM21.65 11.625C21.65 12.2126 21.1688 12.6875 20.5749 12.6875C19.9812 12.6875 19.5 12.2126 19.5 11.625C19.5 11.0376 19.9812 10.5625 20.5749 10.5625C21.1688 10.5625 21.65 11.0376 21.65 11.625ZM13.1062 15.8187C13.1062 16.4063 12.625 16.8812 12.0312 16.8812C11.4375 16.8812 10.9562 16.4063 10.9562 15.8187C10.9562 15.2376 11.4375 14.7563 12.0312 14.7563C12.625 14.7563 13.1062 15.2376 13.1062 15.8187ZM8.79997 13.7562C8.79997 14.3375 8.31872 14.8187 7.72497 14.8187C7.13123 14.8187 6.64998 14.3375 6.64998 13.7562C6.64998 13.1625 7.13123 12.6938 7.72497 12.6938C8.31872 12.6938 8.79997 13.1625 8.79997 13.7562ZM17.35 13.7562C17.35 14.3375 16.8687 14.8187 16.2749 14.8187C15.6812 14.8187 15.2 14.3375 15.2 13.7562C15.2 13.1625 15.6812 12.6938 16.2749 12.6938C16.8687 12.6938 17.35 13.1625 17.35 13.7562ZM4.20623 14.8438C4.20623 15.2437 3.88124 15.5625 3.48124 15.5625C3.08123 15.5625 2.75625 15.2437 2.75625 14.8438C2.75625 14.4501 3.08123 14.125 3.48124 14.125C3.88124 14.125 4.20623 14.4501 4.20623 14.8438ZM21.3 14.8438C21.3 15.2437 20.9749 15.5625 20.5749 15.5625C20.1749 15.5625 19.85 15.2437 19.85 14.8438C19.85 14.4501 20.1749 14.125 20.5749 14.125C20.9749 14.125 21.3 14.4501 21.3 14.8438ZM12.7562 19.0937C12.7562 19.4937 12.4312 19.8188 12.0312 19.8188C11.6313 19.8188 11.3 19.4937 11.3 19.0999C11.3 18.6999 11.6313 18.3813 12.0312 18.3813C12.4312 18.3813 12.7562 18.6999 12.7562 19.0999V19.0937ZM8.45623 16.9687C8.45623 17.3688 8.13122 17.6876 7.72497 17.6876C7.32497 17.6876 6.99998 17.3688 6.99998 16.9687C6.99998 16.575 7.32497 16.2499 7.72497 16.2499C8.13122 16.2499 8.45623 16.575 8.45623 16.9687ZM17 16.9687C17 17.3688 16.6749 17.6876 16.2749 17.6876C15.875 17.6876 15.5437 17.3688 15.5437 16.9687C15.5437 16.575 15.875 16.2499 16.2749 16.2499C16.6749 16.2499 17 16.575 17 16.9687ZM3.86249 17.375C3.86249 17.4745 3.82298 17.5699 3.75265 17.6402C3.68233 17.7105 3.58694 17.75 3.4875 17.75C3.43772 17.7508 3.38829 17.7418 3.34207 17.7233C3.29584 17.7048 3.25377 17.6773 3.21827 17.6423C3.18279 17.6075 3.1546 17.5659 3.13537 17.52C3.11613 17.4741 3.10623 17.4248 3.10624 17.375C3.10624 17.1687 3.27499 17 3.48124 17C3.69373 17 3.85623 17.1687 3.85623 17.375H3.86249ZM20.9561 17.375C20.9561 17.4745 20.9166 17.5699 20.8463 17.6402C20.776 17.7105 20.6807 17.75 20.5812 17.75C20.5315 17.7508 20.482 17.7418 20.4358 17.7233C20.3896 17.7048 20.3474 17.6773 20.312 17.6423C20.2765 17.6075 20.2483 17.5659 20.229 17.52C20.2099 17.4741 20.2 17.4248 20.2 17.375C20.2 17.2756 20.2395 17.1802 20.3098 17.1098C20.3801 17.0395 20.4755 17 20.5749 17C20.6744 17 20.7698 17.0395 20.84 17.1098C20.9105 17.1802 20.95 17.2756 20.95 17.375H20.9561ZM12.4062 21.625C12.4062 21.7245 12.3667 21.8199 12.2964 21.8902C12.226 21.9605 12.1306 22 12.0312 22C11.9317 22 11.8363 21.9605 11.766 21.8902C11.6957 21.8199 11.6562 21.7245 11.6562 21.625C11.6562 21.4187 11.8187 21.25 12.0312 21.25C12.2375 21.25 12.4062 21.4187 12.4062 21.625ZM8.10623 19.5C8.10623 19.5994 8.06672 19.6948 7.99639 19.7651C7.92606 19.8355 7.83067 19.875 7.73123 19.875C7.68146 19.8758 7.63202 19.8667 7.58581 19.8482C7.53958 19.8298 7.49751 19.8023 7.46201 19.7674C7.42653 19.7324 7.39834 19.6909 7.3791 19.6449C7.35987 19.599 7.34997 19.5497 7.34998 19.5C7.34998 19.4005 7.38949 19.3051 7.45981 19.2348C7.53014 19.1646 7.62552 19.125 7.72497 19.125C7.82443 19.125 7.91981 19.1646 7.99014 19.2348C8.06046 19.3051 8.09997 19.4005 8.09997 19.5H8.10623ZM16.65 19.5C16.65 19.5994 16.6105 19.6948 16.5402 19.7651C16.4697 19.8355 16.3744 19.875 16.2749 19.875C16.1754 19.875 16.0801 19.8355 16.0098 19.7651C15.9395 19.6948 15.9 19.5994 15.9 19.5C15.9 19.2938 16.0624 19.125 16.2749 19.125C16.4812 19.125 16.65 19.2938 16.65 19.5ZM13.4562 3.43754C13.4562 4.2313 12.8 4.87503 11.9999 4.87503C11.8098 4.87668 11.6212 4.84076 11.4451 4.76933C11.2689 4.69792 11.1085 4.59239 10.9731 4.45883C10.838 4.32526 10.7303 4.16628 10.6565 3.99102C10.5829 3.81576 10.5445 3.62767 10.5437 3.43754C10.5437 2.64379 11.1999 2.00005 11.9999 2.00005C12.1901 1.99841 12.3787 2.03432 12.5548 2.10574C12.731 2.17717 12.8914 2.28269 13.0268 2.41626C13.1621 2.54983 13.2696 2.7088 13.3434 2.88406C13.417 3.05933 13.4554 3.24742 13.4562 3.43754ZM13.4562 7.68753C13.4562 8.48127 12.8 9.12498 11.9999 9.12498C11.8098 9.12673 11.6212 9.09071 11.4451 9.01932C11.2689 8.9479 11.1085 8.84237 10.9731 8.7088C10.838 8.57525 10.7303 8.41626 10.6565 8.241C10.5829 8.06574 10.5445 7.87766 10.5437 7.68753C10.5437 6.89378 11.1999 6.25003 11.9999 6.25003C12.1901 6.24838 12.3787 6.2843 12.5548 6.35573C12.731 6.42716 12.8914 6.53268 13.0268 6.66625C13.1621 6.79982 13.2696 6.95879 13.3434 7.13406C13.417 7.30932 13.4554 7.4974 13.4562 7.68753ZM13.4562 11.8875C13.4562 12.6813 12.8 13.325 11.9999 13.325C11.8098 13.3267 11.6212 13.2907 11.4451 13.2194C11.2689 13.1479 11.1085 13.0423 10.9731 12.9088C10.838 12.7752 10.7303 12.6162 10.6565 12.4409C10.5829 12.2658 10.5445 12.0777 10.5437 11.8875C10.5437 11.0937 11.1999 10.45 11.9999 10.45C12.1901 10.4484 12.3787 10.4843 12.5548 10.5557C12.731 10.6272 12.8914 10.7326 13.0268 10.8662C13.1621 10.9998 13.2696 11.1588 13.3434 11.3341C13.417 11.5093 13.4554 11.6973 13.4562 11.8875ZM22 7.68753C22 8.48127 21.3499 9.12498 20.5437 9.12498C20.3541 9.12586 20.1662 9.08925 19.9907 9.01752C19.8153 8.94572 19.6556 8.84007 19.521 8.70659C19.3864 8.5731 19.2793 8.4144 19.206 8.23956C19.1326 8.0647 19.0946 7.87712 19.0937 7.68753C19.0937 6.89378 19.7437 6.25003 20.5437 6.25003C20.7337 6.24838 20.9224 6.2843 21.0986 6.35573C21.2748 6.42716 21.4352 6.53268 21.5704 6.66625C21.7057 6.79982 21.8133 6.95879 21.887 7.13406C21.9608 7.30932 21.9991 7.4974 22 7.68753ZM4.90623 7.68753C4.90623 8.48127 4.25624 9.12498 3.45624 9.12498C3.26612 9.12673 3.07754 9.09071 2.90135 9.01932C2.72515 8.9479 2.5648 8.84237 2.42948 8.7088C2.29417 8.57525 2.18658 8.41626 2.11287 8.241C2.03917 8.06574 2.00082 7.87766 2 7.68753C2 6.89378 2.64999 6.25003 3.45624 6.25003C3.64584 6.24922 3.83373 6.28575 4.00921 6.35754C4.18469 6.42933 4.34431 6.53499 4.47895 6.66847C4.6136 6.80195 4.72064 6.96066 4.79395 7.1355C4.86726 7.31035 4.90541 7.49794 4.90623 7.68753ZM9.20623 5.56253C9.20623 6.35629 8.55622 7.00004 7.75623 7.00004C7.5661 7.00168 7.37753 6.96576 7.20133 6.89434C7.02514 6.82291 6.86478 6.71738 6.72946 6.58381C6.59416 6.45025 6.48656 6.29127 6.41286 6.11601C6.33915 5.94075 6.3008 5.75265 6.29998 5.56253C6.29998 4.76879 6.94998 4.12504 7.75623 4.12504C7.94582 4.12421 8.13373 4.16074 8.3092 4.23254C8.48468 4.30434 8.64429 4.41 8.77894 4.54348C8.91359 4.67696 9.02063 4.83566 9.09394 5.01051C9.16729 5.18536 9.20535 5.37293 9.20623 5.56253ZM9.20623 9.75629C9.20623 10.5501 8.55622 11.1938 7.75623 11.1938C7.5661 11.1954 7.37753 11.1595 7.20133 11.088C7.02514 11.0166 6.86478 10.9111 6.72946 10.7776C6.59416 10.644 6.48656 10.485 6.41286 10.3097C6.33915 10.1344 6.3008 9.94646 6.29998 9.75629C6.29998 8.96252 6.94998 8.31877 7.75623 8.31877C7.94582 8.31796 8.13373 8.35449 8.3092 8.42628C8.48468 8.49807 8.64429 8.60373 8.77894 8.73721C8.91359 8.87071 9.02063 9.0294 9.09394 9.20431C9.16729 9.37917 9.20535 9.56671 9.20623 9.75629ZM17.7563 5.56879C17.7563 6.35629 17.1061 7.00004 16.3 7.00004C16.1104 7.00085 15.9224 6.96432 15.747 6.89253C15.5715 6.82073 15.4119 6.71508 15.2773 6.5816C15.1426 6.4481 15.0356 6.28941 14.9623 6.11455C14.8889 5.93971 14.8508 5.75213 14.85 5.56253C14.85 4.76879 15.4999 4.12504 16.3 4.12504C16.49 4.1234 16.6787 4.15931 16.8549 4.23074C17.031 4.30217 17.1915 4.4077 17.3266 4.54125C17.462 4.67482 17.5696 4.8338 17.6432 5.00905C17.717 5.18431 17.7554 5.37241 17.7563 5.56253V5.56879ZM17.7563 9.75629C17.7563 10.5501 17.1061 11.1938 16.3 11.1938C16.1104 11.1946 15.9224 11.158 15.747 11.0863C15.5715 11.0145 15.4119 10.9088 15.2773 10.7754C15.1426 10.6418 15.0356 10.4831 14.9623 10.3083C14.8889 10.1334 14.8508 9.94587 14.85 9.75629C14.85 8.96252 15.4999 8.31877 16.3 8.31877C16.49 8.31712 16.6787 8.35304 16.8549 8.42447C17.031 8.4959 17.1915 8.60143 17.3266 8.73499C17.462 8.86856 17.5696 9.02754 17.6432 9.20286C17.717 9.378 17.7554 9.56612 17.7563 9.75629Z" fill="white"/>
</svg>

<svg xmlns="http://www.w3.org/2000/svg" width="24" height="24" fill="none" viewBox="0 0 24 24">
    <path fill="#fff" d="M4.562 11.625c0 .588-.487 1.063-1.08 1.063a1.07 1.07 0 0 1-1.076-1.063c0-.587.481-1.062 1.075-1.062s1.075.475 1.075 1.062zm17.088 0c0 .588-.481 1.063-1.075 1.063a1.07 1.07 0 0 1-1.075-1.063c0-.587.481-1.062 1.075-1.062s1.075.475 1.075 1.062m-8.544 4.194c0 .587-.481 1.062-1.075 1.062a1.07 1.07 0 0 1-1.075-1.062c0-.581.482-1.063 1.075-1.063.594 0 1.075.482 1.075 1.063M8.8 13.756c0 .582-.481 1.063-1.075 1.063a1.07 1.07 0 0 1-1.075-1.063c0-.594.481-1.062 1.075-1.062s1.075.468 1.075 1.062m8.55 0c0 .582-.481 1.063-1.075 1.063a1.07 1.07 0 0 1-1.075-1.063c0-.594.481-1.062 1.075-1.062s1.075.468 1.075 1.062M4.206 14.844a.72.72 0 0 1-.725.719.72.72 0 0 1-.725-.72.724.724 0 0 1 1.45 0m17.094 0a.72.72 0 0 1-.725.719.72.72 0 0 1-.725-.72.724.724 0 0 1 1.45 0m-8.544 4.25c0 .4-.325.725-.725.725a.73.73 0 0 1-.731-.72c0-.4.331-.718.731-.718s.725.319.725.719zm-4.3-2.125c0 .4-.325.719-.731.719a.72.72 0 0 1-.725-.72c0-.393.325-.718.725-.718.406 0 .731.325.731.719m8.544 0a.72.72 0 0 1-.725.719.726.726 0 0 1-.731-.72.73.73 0 0 1 .73-.718c.4 0 .726.325.726.719m-13.138.406a.375.375 0 0 1-.375.375.375.375 0 1 1 .37-.375zm17.094 0a.375.375 0 0 1-.375.375.375.375 0 1 1 .369-.375zm-8.55 4.25a.375.375 0 1 1-.75 0 .375.375 0 0 1 .75 0m-4.3-2.125a.375.375 0 0 1-.375.375.375.375 0 1 1 .369-.375zm8.544 0a.375.375 0 1 1-.75 0 .375.375 0 0 1 .75 0m-3.194-16.06A1.45 1.45 0 0 1 12 4.875a1.443 1.443 0 0 1-1.456-1.437A1.45 1.45 0 0 1 12 2a1.443 1.443 0 0 1 1.456 1.438m0 4.25A1.45 1.45 0 0 1 12 9.125a1.44 1.44 0 0 1-1.456-1.437A1.45 1.45 0 0 1 12 6.25a1.443 1.443 0 0 1 1.456 1.438m0 4.2A1.45 1.45 0 0 1 12 13.324a1.444 1.444 0 0 1-1.456-1.437A1.45 1.45 0 0 1 12 10.45a1.445 1.445 0 0 1 1.456 1.438M22 7.687c0 .793-.65 1.437-1.456 1.437a1.444 1.444 0 0 1-1.45-1.437c0-.794.65-1.438 1.45-1.438A1.444 1.444 0 0 1 22 7.688m-17.094 0c0 .793-.65 1.437-1.45 1.437A1.44 1.44 0 0 1 2 7.688c0-.794.65-1.438 1.456-1.438a1.444 1.444 0 0 1 1.45 1.438m4.3-2.125c0 .793-.65 1.437-1.45 1.437A1.444 1.444 0 0 1 6.3 5.563c0-.794.65-1.438 1.456-1.438a1.443 1.443 0 0 1 1.45 1.438m0 4.193c0 .794-.65 1.438-1.45 1.438A1.443 1.443 0 0 1 6.3 9.756c0-.793.65-1.437 1.456-1.437a1.444 1.444 0 0 1 1.45 1.437m8.55-4.187c0 .787-.65 1.431-1.456 1.431a1.444 1.444 0 0 1-1.45-1.437c0-.794.65-1.438 1.45-1.438a1.444 1.444 0 0 1 1.456 1.438zm0 4.187c0 .794-.65 1.438-1.456 1.438a1.446 1.446 0 0 1-1.45-1.438c0-.793.65-1.437 1.45-1.437a1.444 1.444 0 0 1 1.456 1.437"/>
</svg>
